svgs/sharp-solid/cactus.svg

<svg xmlns="http://www.w3.org/2000/svg" viewBox="0 0 512 512"><!--! Font Awesome Pro 6.6.0 by @fontawesome - https://fontawesome.com License - https://fontawesome.com/license (Commercial License) Copyright 2024 Fonticons, Inc. --><path d="M160 96c0-53 43-96 96-96s96 43 96 96l0 256 64 0 0-80 0-48 96 0 0 48 0 128 0 48-48 0-112 0 0 64-192 0 0-192L48 320 0 320l0-48L0 144 0 96l96 0 0 48 0 80 64 0 0-128zm80 64a16 16 0 1 0 -32 0 16 16 0 1 0 32 0zm48 240a16 16 0 1 0 0-32 16 16 0 1 0 0 32z"/></svg>

<svg xmlns="http://www.w3.org/2000/svg" viewBox="0 0 512 512"><!--! Font Awesome Pro 6.4.2 by @fontawesome - https://fontawesome.com License - https://fontawesome.com/license (Commercial License) Copyright 2023 Fonticons, Inc. --><path d="M160 96c0-53 43-96 96-96s96 43 96 96V352h64V272 224h96v48V400v48H464 352v64H160V320H48 0V272 144 96H96v48 80h64V96zm80 64a16 16 0 1 0 -32 0 16 16 0 1 0 32 0zm48 240a16 16 0 1 0 0-32 16 16 0 1 0 0 32z"/></svg>
